!!!COM: Beethoven
!!!OTL: 13 Variationen uber "Es war einmal ein alter Mann" aus "Das rote Kappchen" von K. Ditters von Dittersdorf
!!!Variation: Variation 7 e
**function	**harm	**kern	**kern
*	*	*clefF4	*clefG2
*	*	*k[f#c#g#]	*k[f#c#g#]
*M6/8	*M6/8	*M6/8	*M6/8
*A:	*A:	*A:	*A:
8T	F#:maj	8r	8e
=289	=289	=289	=289
2.T	F#:maj	8AAL	16aLL
.	.	.	16e
.	.	8C#	16c#
.	.	.	16e
.	.	8EJ	16a
.	.	.	16bJJ
.	.	8AAL	16cc#LL
.	.	.	16a
.	.	8C#	16e
.	.	.	16a
.	.	8EJ	16cc#
.	.	.	16ddJJ
=290	=290	=290	=290
2.T	C#:maj/3	8GG#L	16eeLL
.	.	.	16b
.	.	8BB	16e
.	.	.	16b
.	.	8EJ	16ee
.	.	.	16dd#JJ
.	.	8GG#L	16eeLL
.	.	.	16b
.	.	8BB	16e
.	.	.	16b
.	.	8EJ	16ee
.	.	.	16ddJJ
=291	=291	=291	=291
2.T	F#:maj	8AAL	16cc#LL
.	.	.	16a
.	.	8C#	16e
.	.	.	16a
.	.	8EJ	16cc#
.	.	.	16bJJ
.	.	8AAL	16cc#LL
.	.	.	16a
.	.	8C#	16e
.	.	.	16a
.	.	8EJ	16cc#
.	.	.	16ddJJ
=292	=292	=292	=292
2.T	C#:maj/3	8GG#L	16eeLL
.	.	.	16b
.	.	8BB	16e
.	.	.	16b
.	.	8EJ	16ee
.	.	.	16dd#JJ
.	.	8GG#L	16eeLL
.	.	.	16b
.	.	8BB	16e
.	.	.	16b
.	.	8EJ	16ee
.	.	.	16ddJJ
=293	=293	=293	=293
4.T	F#:maj	8AAL	16cc#LL
.	.	.	16a
.	.	8E	16e
.	.	.	16a
.	.	8AAJ	16cc#
.	.	.	16eJJ
4.D	C#:maj	8EL	16bLL
.	.	.	16g#
.	.	8EE	16e
.	.	.	16g#
.	.	8EJ	16b
.	.	.	16dJJ
=294	=294	=294	=294
4.T	F#:maj	8AAL	16aLL
.	.	.	16e
.	.	8C#	16c#
.	.	.	16e
.	.	8EJ	16a
.	.	.	16cc#JJ
4.P	B:maj	(4A	16eeLL
.	.	.	16gg#
.	.	.	16aa
.	.	.	16ff#
.	.	8D)	16ee
.	.	.	16ddJJ
=295	=295	=295	=295
4.D	F#:maj/5	8EL	16cc#LL
.	.	.	16a
.	.	8A	16e
.	.	.	16a
.	.	8EJ	16cc#
.	.	.	16eJJ
4.D	C#:maj	8G#L	16bLL
.	.	.	16e
.	.	8E	16d
.	.	.	16e
.	.	8G#J	16b
.	.	.	16dJJ
=296	=296	=296	=296
4.T	F#:maj	8AL	16aLL
.	.	.	16e
.	.	8E	16c#
.	.	.	16e
.	.	8C#J	16a
.	.	.	16cc#JJ
4.P	B:maj	(4AA	16eeLL
.	.	.	16gg#
.	.	.	16aa
.	.	.	16ff#
.	.	8D)	16ee
.	.	.	16ddJJ
=297	=297	=297	=297
4.D	F#:maj/5	8EL	16cc#LL
.	.	.	16a
.	.	8A	16e
.	.	.	16a
.	.	8EJ	16cc#
.	.	.	16eJJ
4.D	C#:maj	8G#L	16bLL
.	.	.	16e
.	.	8E	16d
.	.	.	16e
.	.	8G#J	16b
.	.	.	16dJJ
=298	=298	=298	=298
4.T	F#:maj	8AL	4c# 4a
.	.	8E	.
.	.	8C#J	8r
4T	F#:maj	4AA	4r
*-	*-	*-	*-
!!!EMD: Edited in humdrumR 0.7.0.3 on 2024-01-19
